X: 7439
T: Clougher, The
R: reel
M: 4/4
K: Dmajor
|:~d3c d2 B/c/d|edBd egfe|~d3c d2 B/c/d|eBdB ~A3B:|
|:dB~B2 g2 fg|edBd egfe|dB~B2 g2 fg|e/f/g dB ~A3B:|
faaf g2 fg|edBd e3 e|faaf g2 fg|e/f/e dB ~A3z|
faaf g2 fg|edBd e3 e|fa~a2 bfaf|~e3f g2 fe|

